svg/300/sharp/shape_line-fill.svg

<svg xmlns="http://www.w3.org/2000/svg" width="48" height="48" viewBox="0 -960 960 960"><path d="M240.114-540.001q-74.652 0-127.382-52.637-52.73-52.637-52.73-127.319 0-75.581 52.636-127.811 52.637-52.231 127.319-52.231 75.581 0 127.811 52.167 52.231 52.166 52.231 127.718 0 74.652-52.167 127.382-52.166 52.731-127.718 52.731Zm339.887 480V-380h319.998v319.998H580.001Zm123.46-610.845L289.154-257.539q6.615 10.461 9.923 22.711 3.308 12.25 3.308 25.134 0 38.205-26.993 65.448-26.993 27.243-65.608 27.243-38.167 0-65.474-27.251-27.307-27.251-27.307-65.467 0-38.664 27.243-65.664t65.448-27q12.884 0 25.134 3.308t22.711 9.923l413.307-414.307q-6.615-10.461-9.923-22.344-3.308-11.882-3.308-24.501 0-39.038 27.444-65.865 27.443-26.826 65.274-26.826 39.05 0 65.857 26.8 26.807 26.801 26.807 65.8 0 37.782-26.826 65.282-26.827 27.5-65.865 27.5-12.619 0-24.501-3.308-11.883-3.308-22.344-9.923Z"/></svg>

<svg xmlns="http://www.w3.org/2000/svg" width="48" height="48" viewBox="0 -960 960 960"><path d="M240.11-540q-74.65 0-127.38-52.64Q60-645.28 60-719.96q0-75.58 52.64-127.81Q165.28-900 239.96-900q75.58 0 127.81 52.17Q420-795.67 420-720.11q0 74.65-52.17 127.38Q315.67-540 240.11-540ZM580-60v-320h320v320H580Zm123.46-610.85L289.15-257.54q6.62 10.46 9.93 22.71 3.3 12.25 3.3 25.14 0 38.2-26.99 65.44Q248.4-117 209.78-117q-38.16 0-65.47-27.25Q117-171.5 117-209.72q0-38.67 27.25-65.67 27.24-26.99 65.44-26.99 12.89 0 25.14 3.3 12.25 3.31 22.71 9.93l413.31-414.31q-6.62-10.46-9.93-22.34-3.3-11.89-3.3-24.51 0-39.03 27.44-65.86T750.33-843q39.05 0 65.86 26.8Q843-789.4 843-750.4q0 37.79-26.83 65.29-26.83 27.49-65.86 27.49-12.62 0-24.51-3.3-11.88-3.31-22.34-9.93Z"/></svg>
